ОкеанВКонцеДороги/svg/ch1/balloon6.svg

<svg width="262" height="896" viewBox="0 0 262 896" fill="none" xmlns="http://www.w3.org/2000/svg">
<g opacity="0.51">
<path d="M128.604 368.956C123.283 385.14 116.869 412.651 115 442.372C113.127 472.145 115.838 503.779 128.443 528.464C144.565 560.035 161.52 592.744 171.029 623.136C180.524 653.486 182.82 682.22 168.742 705.448C141.45 750.48 88.8651 811.541 128.466 892.722L123.626 895.083C82.4391 810.651 137.57 746.492 164.136 702.658C176.987 681.455 175.244 654.646 165.889 624.743C156.547 594.882 139.84 562.625 123.647 530.913C110.4 504.971 107.727 472.201 109.625 442.034C111.525 411.816 118.037 383.853 123.488 367.273L128.604 368.956Z" fill="url(#paint0_linear_622_71)"/>
<path d="M5.15991 115.482C-22.3076 261.437 66.8708 335.625 108.162 361.207C104.122 370.632 97.3907 371.979 94.0246 376.018C95.6403 380.327 106.816 383.199 112.202 384.097C116.017 381.404 126.205 377.634 136.438 384.097C146.671 390.56 152.819 381.404 154.615 376.018C150.8 373.55 141.823 367.132 136.438 361.207C232.036 320.819 277.142 215.123 256.272 105.388C235.402 -4.34754 39.4943 -66.9615 5.15991 115.482Z" fill="url(#paint1_radial_622_71)"/>
<path d="M5.15991 115.482C-22.3076 261.437 66.8708 335.625 108.162 361.207C104.122 370.632 97.3907 371.979 94.0246 376.018C95.6403 380.327 106.816 383.199 112.202 384.097C116.017 381.404 126.205 377.634 136.438 384.097C146.671 390.56 152.819 381.404 154.615 376.018C150.8 373.55 141.823 367.132 136.438 361.207C232.036 320.819 277.142 215.123 256.272 105.388C235.402 -4.34754 39.4943 -66.9615 5.15991 115.482Z" fill="white" fill-opacity="0.2"/>
</g>
<defs>
<linearGradient id="paint0_linear_622_71" x1="175.567" y1="354.338" x2="148.362" y2="767.291" gradientUnits="userSpaceOnUse">
<stop stop-color="#7BAAC9"/>
<stop offset="1" stop-color="#D9EAFF"/>
</linearGradient>
<radialGradient id="paint1_radial_622_71" cx="0" cy="0" r="1" gradientUnits="userSpaceOnUse" gradientTransform="translate(198.625 141.659) rotate(108.598) scale(159.453 107.846)">
<stop stop-color="#6A8BA9"/>
<stop offset="1" stop-color="#75A7C6"/>
</radialGradient>
</defs>
</svg>

<svg xmlns="http://www.w3.org/2000/svg" width="262" height="896" fill="none" viewBox="0 0 262 896"><g opacity=".51"><path fill="url(#a)" d="M128.604 368.956c-5.321 16.184-11.735 43.695-13.604 73.416-1.873 29.773.838 61.407 13.443 86.092 16.122 31.571 33.077 64.28 42.586 94.672 9.495 30.35 11.791 59.084-2.287 82.312-27.292 45.032-79.877 106.093-40.276 187.274l-4.84 2.361c-41.187-84.432 13.944-148.591 40.51-192.425 12.851-21.203 11.108-48.012 1.753-77.915-9.342-29.861-26.049-62.118-42.242-93.83-13.247-25.942-15.92-58.712-14.022-88.879 1.9-30.218 8.412-58.181 13.863-74.761z"/><path fill="url(#b)" d="M5.16 115.482c-27.468 145.955 61.71 220.143 103.002 245.725-4.04 9.425-10.771 10.772-14.137 14.811 1.615 4.309 12.791 7.181 18.177 8.079 3.815-2.693 14.003-6.463 24.236 0s16.381-2.693 18.177-8.079c-3.815-2.468-12.792-8.886-18.177-14.811 95.598-40.388 140.704-146.084 119.834-255.819C235.402-4.348 39.494-66.962 5.16 115.482"/><path fill="#fff" fill-opacity=".2" d="M5.16 115.482c-27.468 145.955 61.71 220.143 103.002 245.725-4.04 9.425-10.771 10.772-14.137 14.811 1.615 4.309 12.791 7.181 18.177 8.079 3.815-2.693 14.003-6.463 24.236 0s16.381-2.693 18.177-8.079c-3.815-2.468-12.792-8.886-18.177-14.811 95.598-40.388 140.704-146.084 119.834-255.819C235.402-4.348 39.494-66.962 5.16 115.482"/></g><defs><radialGradient id="b" cx="0" cy="0" r="1" gradientTransform="rotate(108.598 48.414 142.195)scale(159.453 107.846)" gradientUnits="userSpaceOnUse"><stop stop-color="#6a8ba9"/><stop offset="1" stop-color="#75a7c6"/></radialGradient><linearGradient id="a" x1="175.567" x2="148.362" y1="354.338" y2="767.291" gradientUnits="userSpaceOnUse"><stop stop-color="#7baac9"/><stop offset="1" stop-color="#d9eaff"/></linearGradient></defs></svg>
